src/icons/person-permissions.svg

<?xml version="1.0" encoding="UTF-8"?>
<svg width="512px" height="512px" viewBox="0 0 512 512" version="1.1" xmlns="http://www.w3.org/2000/svg" xmlns:xlink="http://www.w3.org/1999/xlink">
    <!-- Generator: Sketch 62 (91390) - https://sketch.com -->
    <title>person-permissions</title>
    <desc>Created with Sketch.</desc>
    <g id="person-permissions" stroke="none" stroke-width="1" fill="none" fill-rule="evenodd">
        <path d="M366.35,218.725 C400.75,218.725 428.55,246.725 428.55,281.025 C428.55,315.325 400.75,343.225 366.35,343.225 C356.25,343.225 346.75,340.725 338.25,336.425 L338.25,336.425 L332.65,353.225 L306.05,356.725 L292.45,389.525 L275.85,392.625 L266.25,410.125 L220.55,412.625 L212.85,393.925 L308.15,302.925 C305.65,296.125 304.15,288.725 304.15,280.925 C304.15,246.625 331.95,218.725 366.35,218.725 Z M231.45,99.375 C285.35,99.375 300.35,141.975 298.95,158.175 C297.75,171.275 297.05,176.975 296.55,183.375 C296.05,189.775 301.15,190.775 298.05,204.175 C292.25,229.675 290.05,218.975 287.35,234.975 C280.45,275.575 269.55,263.175 269.55,284.475 C269.55,295.275 270.25,303.175 271.35,307.375 L271.35,307.375 L276.75,309.075 L181.95,395.075 L83.45,395.075 C83.45,395.075 83.45,374.875 85.15,364.275 C86.45,355.875 98.15,344.775 147.75,326.575 C196.45,308.875 193.45,317.575 193.45,284.575 C193.45,263.175 182.55,275.575 175.65,235.075 C172.95,219.175 170.75,229.675 164.95,204.275 C161.95,190.875 167.15,189.875 166.45,183.475 C165.75,177.075 165.25,171.275 164.05,158.275 C162.55,141.975 177.55,99.375 231.45,99.375 Z M384.75,243.625 C374.65,243.625 366.45,251.825 366.45,261.925 C366.45,272.025 374.65,280.225 384.75,280.225 C394.85,280.225 403.15,272.025 403.05,261.925 C403.05,251.825 394.85,243.625 384.75,243.625 Z" id="Combined-Shape" fill="#000000" fill-rule="nonzero"></path>
    </g>
</svg>

<svg xmlns="http://www.w3.org/2000/svg" width="512" height="512" viewBox="0 0 512 512">
    <path d="M366.35 218.725c34.4 0 62.2 28 62.2 62.3s-27.8 62.2-62.2 62.2c-10.1 0-19.6-2.5-28.1-6.8l-5.6 16.8-26.6 3.5-13.6 32.8-16.6 3.1-9.6 17.5-45.7 2.5-7.7-18.7 95.3-91c-2.5-6.8-4-14.2-4-22 0-34.3 27.8-62.2 62.2-62.2zm-134.9-119.35c53.9 0 68.9 42.6 67.5 58.8-1.2 13.1-1.9 18.8-2.4 25.2-.5 6.4 4.6 7.4 1.5 20.8-5.8 25.5-8 14.8-10.7 30.8-6.9 40.6-17.8 28.2-17.8 49.5 0 10.8.7 18.7 1.8 22.9l5.4 1.7-94.8 86h-98.5s0-20.2 1.7-30.8c1.3-8.4 13-19.5 62.6-37.7 48.7-17.7 45.7-9 45.7-42 0-21.4-10.9-9-17.8-49.5-2.7-15.9-4.9-5.4-10.7-30.8-3-13.4 2.2-14.4 1.5-20.8-.7-6.4-1.2-12.2-2.4-25.2-1.5-16.3 13.5-58.9 67.4-58.9zm153.3 144.25c-10.1 0-18.3 8.2-18.3 18.3 0 10.1 8.2 18.3 18.3 18.3 10.1 0 18.4-8.2 18.3-18.3 0-10.1-8.2-18.3-18.3-18.3z"/>
</svg>
